X:1
T:There Is a Mighty Question
T:There Is a Mighty Question
T:Arthur Henry Mann, 1881
T:Carolyn Winfrey Gillette, 1998
T:© 1998 Carolyn Winfrey Gillette Courtesy of the Cyber Hymnal™
T:© 1998 Carolyn Winfrey Gillette Courtesy of the Cyber Hymnal™
C:Arthur Henry Mann, 1881
Z:© 1998 Carolyn Winfrey Gillette
Z:Courtesy of the Cyber Hymnal™
%%score ( 1 2 ) ( 3 4 )
L:1/8
Q:1/4=112
M:4/4
K:G
V:1 treble 
V:2 treble 
V:3 bass 
V:4 bass 
V:1
 [DB]2 | [DB]3 [DB] [CA]2 G2 | [DG]4 [DF]2 D2 | c3 z c [GB]2 [DA]2 | [DB]6 [GB]2 | %5
w: 1.~There|is a might- y|quest- ion we|ask when na- tions|rage: Just|
w: 2.~For|in the days of|No- ah, the|peo- ple went a-|long In|
w: 3.~So|keep a- wake and|watch- ful; sal-|va- tion is at|hand! Our|
w: 4.~Be|rea- dy in your|liv- ing, for|when you feed the|poor, Or|
 [^Gd]3 [Gd] [Ac]2 [EB]2 | [EB]4 [Ec]2 [EB]2 | [EA]3 [^CG] [CF]2 [CG]2 | [DA]6 [C^A]2 | %9
w: when will be Christ’s|com- ing, the|end- ing of the|age? Take|
w: eat- ing and in|drink- ing, in|mer- ri- ment and|song— Then|
w: hope is in Christ|Je- sus, and|by God’s grace we|stand. The|
w: give to thirst- y|child- ren the|wa- ter they long|for, And|
 B3 z [DB] [CA]2 G2 | [DG]4 [DF]2 D2 | c3 z c [GB]2 [DA]2 | [DB]6 [GB]2 | [^Ge]3 [Gd] [Ac]2 [EB]2 | %14
w: care, said Je- sus|clear- ly, for|ma- ny will ap-|pear; They’ll|claim to be Mes-|
w: sud- den- ly the|world changed with|great, sur- pris- ing|power; So|too will be Christ’s|
w: night is al- most|o- ver, we|wait for God’s new|day, And|through the Ho- ly|
w: when you wel- come|stran- gers and|help the ones in|need, Christ|says: “Re- ceive my|
 [Ed]4 [Ec]2 [CE]2 | [DG]3 [CF] [CE]2 [CF]2 | [B,G]6 |] %17
w: si- ah, yet|peo- ple should not|fear.|
w: com- ing, and|no one knows the|hour.|
w: Spir- it, we|fol- low Je- sus’|way.|
w: king- dom, for|you are serv- ing|me.”|
V:2
 x2 | x6 (B,D) | x6 D2 | (D2 F2) x5 | x8 | x8 | x8 | x8 | x8 | (B,2 D2) x (B,D) x2 | x8 | %11
 (D2 F2) x5 | x8 | x8 | x8 | x8 | x6 |] %17
V:3
 [G,,G,]2 | [G,,D,]2 [G,,E,]2 [G,,F,]2 G,2 | [D,B,]4 [D,A,]2 [D,F,]2 | F,2 z [E,G,]2 [F,C]2 x2 | %4
 [G,B,]6 [G,B,]2 | [E,B,]3 [E,B,] [F,E]2 [^G,D]2 | [^G,D]4 [A,C]2 [A,D]2 | %7
 [A,,^C]3 [A,,B,] [A,,A,]2 [A,,G,]2 | (G,4 F,2) [D,F,]2 | [G,,G,]2 (D,E,) [G,,F,]2 F,2 x | %10
 [D,B,]4 [D,A,]2 [D,F,]2 | (F,2 A,[D,A,]) [E,G,]2 [F,C]2 x | [G,B,]6 [G,B,]2 | %13
 [E,B,]3 [E,B,] [F,E]2 [^G,D]2 | [^G,B,]4 [A,C]2 [A,,A,]2 | [D,B,]3 [D,A,] [D,G,]2 [D,A,]2 | %16
 [G,,G,]6 |] %17
V:4
 x2 | x6 (G,,B,,) | x8 | D,3 A,2 D, x3 | x8 | x8 | x8 | x8 | D,6 x2 | x2 G,,2 x (G,,B,,) x2 | x8 | %11
 D,3 x6 | x8 | x8 | x8 | x8 | x6 |] %17

